symbols/web/settings_bluetooth/materialsymbolsrounded/settings_bluetooth_wght200gradN25_24px.svg

<svg xmlns="http://www.w3.org/2000/svg" height="24" width="24"><path d="M8.05 23.65q-.325 0-.537-.225Q7.3 23.2 7.3 22.9q0-.325.225-.538.225-.212.525-.212.3 0 .525.212.225.213.225.538 0 .3-.225.525-.225.225-.525.225Zm3.95 0q-.3 0-.525-.225-.225-.225-.225-.525 0-.325.225-.538.225-.212.525-.212.3 0 .525.212.225.213.225.538 0 .3-.225.525-.225.225-.525.225Zm3.975 0q-.3 0-.525-.225-.225-.225-.225-.525 0-.325.225-.538.225-.212.525-.212.3 0 .525.212.225.213.225.538 0 .3-.225.525-.225.225-.525.225Zm-4.45-12.525-4.75 4.75q-.125.15-.312.163-.188.012-.338-.163-.175-.15-.175-.325 0-.175.175-.325l5.225-5.2-5.225-5.25q-.15-.125-.162-.313-.013-.187.162-.337.15-.15.325-.15.175 0 .325.15l4.75 4.75V1.7q0-.25.15-.4.15-.15.375-.15.125 0 .262.075.138.075.288.2L16.375 5.2q.125.125.187.262.063.138.063.288 0 .15-.063.275-.062.125-.187.25L12.65 10l3.725 3.725q.125.125.187.263.063.137.063.287 0 .15-.063.275-.062.125-.187.25L12.6 18.6q-.15.125-.288.2-.137.075-.262.075-.225 0-.375-.15t-.15-.4Zm.925-2.25L15.6 5.75l-3.15-3.125Zm0 8.525 3.15-3.125-3.15-3.15Z"/></svg>

<svg xmlns="http://www.w3.org/2000/svg" height="24" width="24"><path d="M8.05 23.65Q7.725 23.65 7.513 23.425Q7.3 23.2 7.3 22.9Q7.3 22.575 7.525 22.362Q7.75 22.15 8.05 22.15Q8.35 22.15 8.575 22.362Q8.8 22.575 8.8 22.9Q8.8 23.2 8.575 23.425Q8.35 23.65 8.05 23.65ZM12 23.65Q11.7 23.65 11.475 23.425Q11.25 23.2 11.25 22.9Q11.25 22.575 11.475 22.362Q11.7 22.15 12 22.15Q12.3 22.15 12.525 22.362Q12.75 22.575 12.75 22.9Q12.75 23.2 12.525 23.425Q12.3 23.65 12 23.65ZM15.975 23.65Q15.675 23.65 15.45 23.425Q15.225 23.2 15.225 22.9Q15.225 22.575 15.45 22.362Q15.675 22.15 15.975 22.15Q16.275 22.15 16.5 22.362Q16.725 22.575 16.725 22.9Q16.725 23.2 16.5 23.425Q16.275 23.65 15.975 23.65ZM11.925 18.725Q11.75 18.65 11.637 18.475Q11.525 18.3 11.525 18.15V11.125L6.775 15.875Q6.65 16.025 6.463 16.038Q6.275 16.05 6.125 15.875Q5.95 15.725 5.95 15.55Q5.95 15.375 6.125 15.225L11.35 10.025L6.125 4.775Q5.975 4.65 5.963 4.462Q5.95 4.275 6.125 4.125Q6.275 3.975 6.45 3.975Q6.625 3.975 6.775 4.125L11.525 8.875V1.875Q11.525 1.7 11.637 1.537Q11.75 1.375 11.925 1.3Q12.1 1.225 12.288 1.262Q12.475 1.3 12.6 1.425L16.375 5.2Q16.5 5.325 16.562 5.462Q16.625 5.6 16.625 5.75Q16.625 5.9 16.562 6.037Q16.5 6.175 16.375 6.275L12.65 10L16.375 13.725Q16.5 13.85 16.562 13.988Q16.625 14.125 16.625 14.275Q16.625 14.425 16.562 14.55Q16.5 14.675 16.375 14.8L12.6 18.575Q12.475 18.7 12.288 18.737Q12.1 18.775 11.925 18.725ZM12.45 8.875 15.6 5.75 12.45 2.625ZM12.45 17.4 15.6 14.275 12.45 11.125Z"/></svg>
